X:410
T: Dujiang da chongfeng
N: C2028
O: China,Jiangsu Rugao
S: III, 465, 1)]
R: Xiaodiao, Mantou diao]
M: 2/4
L: 1/16
K: D
d2F2A4 | d2efd4 | d2f2e2dB | A2F2A4 |
d3de2dd | FABdA2F2 | A2d2d2F2 | ABFED4 |
F3AF2EF | A2B2A4 |
A2d2d2FE | ABFED4

@@@ Tune index: 6965
